shader_type canvas_item;

uniform float onoff = 0;
uniform vec4 line_color = vec4(1);
uniform float line_thickness : hint_range(0, 10) = 1.0;

void fragment() {
	vec2 size = TEXTURE_PIXEL_SIZE * line_thickness;
	
	float outline = texture(TEXTURE, UV + vec2(-size.x, 0)).a;
	outline += texture(TEXTURE, UV + vec2(0, size.y)).a;
	outline += texture(TEXTURE, UV + vec2(size.x, 0)).a;
	outline += texture(TEXTURE, UV + vec2(0, -size.y)).a;
	outline += texture(TEXTURE, UV + vec2(-size.x, size.y)).a;
	outline += texture(TEXTURE, UV + vec2(size.x, size.y)).a;
	outline += texture(TEXTURE, UV + vec2(-size.x, -size.y)).a;
	outline += texture(TEXTURE, UV + vec2(size.x, -size.y)).a;
	outline = min(outline, 1.0);
	outline *= onoff;
	
	vec4 color = texture(TEXTURE, UV);
	float outline_diff = color.a * onoff;
	COLOR = mix(color, line_color, outline - outline_diff);
}